<?xml version="1.0" encoding="UTF-8"?>
<map version="1.0" orientation="orthogonal" width="20" height="20" tilewidth="48" tileheight="48">
 <tileset firstgid="1" name="Decorum" tilewidth="48" tileheight="48">
  <properties>
   <property name="components" value="Block"/>
  </properties>
  <image source="pickleTiles_resize.png" width="768" height="48"/>
  <tile id="0">
   <properties>
    <property name="components" value="Ground, Block"/>
   </properties>
  </tile>
  <tile id="1">
   <properties>
    <property name="components" value="Block"/>
   </properties>
  </tile>
  <tile id="2">
   <properties>
    <property name="components" value="Ground, Block"/>
   </properties>
  </tile>
  <tile id="3">
   <properties>
    <property name="components" value="Block"/>
   </properties>
  </tile>
  <tile id="4">
   <properties>
    <property name="components" value="Ground, Block"/>
   </properties>
  </tile>
  <tile id="5">
   <properties>
    <property name="components" value="Block"/>
   </properties>
  </tile>
  <tile id="6">
   <properties>
    <property name="components" value="Ground, Block"/>
   </properties>
  </tile>
  <tile id="7">
   <properties>
    <property name="components" value="Block"/>
   </properties>
  </tile>
  <tile id="8">
   <properties>
    <property name="components" value="Ground, Block"/>
   </properties>
  </tile>
  <tile id="9">
   <properties>
    <property name="components" value="Block"/>
   </properties>
  </tile>
  <tile id="10">
   <properties>
    <property name="components" value="Ground, Block"/>
   </properties>
  </tile>
  <tile id="11">
   <properties>
    <property name="components" value="Block"/>
   </properties>
  </tile>
  <tile id="12">
   <properties>
    <property name="components" value="Ground, Block"/>
   </properties>
  </tile>
  <tile id="13">
   <properties>
    <property name="components" value="Block"/>
   </properties>
  </tile>
  <tile id="14">
   <properties>
    <property name="components" value="Ground, Block"/>
   </properties>
  </tile>
  <tile id="15">
   <properties>
    <property name="component" value="Block"/>
   </properties>
  </tile>
 </tileset>
 <tileset firstgid="17" name="Common" tilewidth="48" tileheight="48">
  <image source="../resources/sprite/common.png" width="480" height="48"/>
  <tile id="0">
   <properties>
    <property name="components" value="BloodPotion"/>
   </properties>
  </tile>
  <tile id="1">
   <properties>
    <property name="components" value="Grave"/>
   </properties>
  </tile>
 </tileset>
 <tileset firstgid="27" name="Heart" tilewidth="48" tileheight="48">
  <image source="../resources/sprite/mini_heart.png" width="144" height="48"/>
 </tileset>
 <layer name="Tile Layer 1" width="20" height="20">
  <data encoding="csv">
16,12,16,16,16,16,10,0,0,0,4,16,16,16,16,16,12,12,12,16,
14,0,4,12,12,10,0,0,0,0,0,4,16,16,16,10,0,0,0,8,
14,0,0,0,0,0,0,0,0,0,0,0,4,12,10,0,0,0,0,8,
14,0,27,0,0,0,0,0,0,18,0,0,0,0,0,0,0,0,0,8,
16,15,15,13,0,0,0,3,11,11,9,0,0,0,0,0,0,18,0,8,
16,16,12,10,0,0,0,0,0,0,0,0,0,0,0,0,3,15,15,16,
16,10,0,0,0,0,0,0,0,0,0,0,27,0,0,0,0,4,16,16,
14,0,0,0,0,7,15,13,0,0,0,7,15,15,13,0,0,0,4,16,
14,0,0,0,7,16,12,10,0,0,0,8,16,16,14,0,0,0,0,8,
14,0,7,15,16,14,0,0,0,7,15,16,16,16,14,0,0,27,0,8,
14,0,4,12,16,16,13,0,0,4,12,16,16,16,10,0,0,7,15,16,
14,0,0,0,4,16,14,27,0,0,0,4,16,10,0,0,0,4,16,16,
14,0,0,0,0,4,16,13,0,0,0,0,6,0,0,0,0,0,4,16,
16,13,0,0,0,0,4,16,15,13,0,0,6,0,0,0,0,0,0,8,
16,16,15,13,0,0,0,4,12,10,0,0,2,0,0,0,0,18,0,8,
16,12,12,10,0,0,0,0,0,0,0,0,0,0,3,11,15,15,15,16,
14,0,0,0,0,0,0,0,0,0,0,0,0,0,0,0,4,16,16,16,
14,0,18,0,0,7,15,15,15,13,0,0,0,0,27,0,0,8,16,16,
15,15,15,15,15,16,16,16,16,16,13,0,0,0,7,15,15,16,16,16,
16,16,16,16,16,16,16,16,16,16,14,0,0,0,8,16,16,16,16,16
</data>
 </layer>
</map>
